status/16/nm-signal-25-secure.svg

<?xml version="1.0" encoding="UTF-8" standalone="no"?>
<svg
   xmlns:dc="http://purl.org/dc/elements/1.1/"
   xmlns:cc="http://creativecommons.org/ns#"
   xmlns:rdf="http://www.w3.org/1999/02/22-rdf-syntax-ns#"
   xmlns:svg="http://www.w3.org/2000/svg"
   xmlns="http://www.w3.org/2000/svg"
   version="1.1"
   width="16"
   height="16"
   id="svg3773">
  <defs
     id="defs3775" />
  <metadata
     id="metadata3778">
    <rdf:RDF>
      <cc:Work
         rdf:about="">
        <dc:format>image/svg+xml</dc:format>
        <dc:type
           rdf:resource="http://purl.org/dc/dcmitype/StillImage" />
        <dc:title />
      </cc:Work>
    </rdf:RDF>
  </metadata>
  <g
     id="layer1"
     style="fill:#333333">
    <path
       d="m 8,3.03125 c -2.8534221,0 -5.468321,1.111063 -7.5,2.9375 l 1.28125,1.4375 C 3.5929659,5.8178024 5.5135772,5.03125 8,5.03125 c 2.486423,0 4.320271,0.7394634 6.21875,2.40625 L 15.5,5.96875 C 13.468321,4.142313 10.853421,3.03125 8,3.03125 z m 0,4 c -1.8478881,0 -3.514191,0.750325 -4.875,1.875 L 4.46875,10.3125 C 5.37512,9.6633276 6.7673879,9.03125 7.9375,9.03125 c 1.198417,0 2.67452,0.6342656 3.59375,1.3125 L 12.90625,8.875 C 11.545441,7.750325 9.847888,7.03125 8,7.03125 z"
       id="path3838"
       style="opacity:0.4;color:#000000;fill:#333333;fill-opacity:1;fill-rule:nonzero;stroke:none;stroke-width:1;marker:none;visibility:visible;display:inline;overflow:visible;enable-background:accumulate" />
    <path
       d="m 8.0000001,11.035506 c -0.883784,0 -1.7582786,0.463138 -2.1184756,0.860829 L 8.0000001,14.2 10.139037,11.916897 C 9.7788401,11.498644 8.8837841,11.035506 8.0000001,11.035506 z"
       id="path4112-19-69-3-0-8-8"
       style="color:#000000;fill:#333333;fill-opacity:1;fill-rule:nonzero;stroke:none;stroke-width:1;marker:none;visibility:visible;display:inline;overflow:visible;enable-background:accumulate" />
  </g>
  <path
     d="m 13.5,9.5968504 c -0.923333,0 -1.666667,0.7289696 -1.666667,1.6258006 l 0,0.77538 C 11.371667,11.998031 11,12.355007 11,12.798425 l 0,2.401181 C 11,15.643024 11.371667,16 11.833333,16 l 3.333334,0 C 15.628333,16 16,15.643024 16,15.199606 l 0,-2.401181 c 0,-0.443418 -0.371667,-0.800394 -0.833333,-0.800394 l 0,-0.77538 c 0,-0.896831 -0.743334,-1.6258006 -1.666667,-1.6258006 z m 0,0.8003936 c 0.461667,0 0.833333,0.354065 0.833333,0.800394 l 0,0.800393 -1.666666,0 0,-0.800393 c 0,-0.446329 0.371666,-0.800394 0.833333,-0.800394 z"
     id="rect2822"
     style="color:#000000;fill:#333333;fill-opacity:1;fill-rule:nonzero;stroke:none;stroke-width:1;marker:none;visibility:visible;display:inline;overflow:visible;enable-background:accumulate" />
</svg>

<svg xmlns="http://www.w3.org/2000/svg" viewBox="0 0 16 16"><g fill="#333" color="#000"><path d="M8 3.03c-2.853 0-5.468 1.112-7.5 2.94l1.28 1.436C3.594 5.818 5.515 5.03 8 5.03c2.486 0 4.32.74 6.22 2.407L15.5 5.97C13.468 4.14 10.853 3.03 8 3.03zm0 4c-1.848 0-3.514.752-4.875 1.876l1.344 1.406c.904-.65 2.296-1.28 3.467-1.28 1.198 0 2.674.634 3.593 1.312l1.376-1.47C11.546 7.75 9.848 7.032 8 7.032z" opacity=".4" overflow="visible"/><path d="M8 11.036c-.884 0-1.758.463-2.118.86L8 14.2l2.14-2.283c-.36-.418-1.256-.88-2.14-.88z" overflow="visible"/></g><path d="M13.5 9.597c-.923 0-1.667.73-1.667 1.626v.775c-.46 0-.833.357-.833.8V15.2c0 .443.372.8.833.8h3.334c.46 0 .833-.357.833-.8v-2.402c0-.443-.372-.8-.833-.8v-.775c0-.897-.744-1.626-1.667-1.626zm0 .8c.462 0 .833.354.833.8v.8h-1.666v-.8c0-.446.37-.8.833-.8z" color="#000" fill="#333" overflow="visible"/></svg>
